src/img/ic_warning.svg

<svg width="48" height="48" viewBox="0 0 48 48" fill="none" xmlns="http://www.w3.org/2000/svg">
<path d="M38.4492 30.7773L26.5664 10C26.0039 8.99219 25.1484 8.48828 24 8.48828C22.8516 8.48828 21.9961 8.99219 21.4336 10L9.55078 30.7773C8.75391 32.1602 8.75391 33.543 9.55078 34.9258C10.3711 36.3086 11.5781 37 13.1719 37H34.8281C36.4219 37 37.6172 36.3086 38.4141 34.9258C39.2344 33.543 39.2461 32.1602 38.4492 30.7773ZM23.2617 19H24.7383V28H23.2617V19ZM24 31.7617C23.6953 31.7617 23.4258 31.6562 23.1914 31.4453C22.9805 31.2109 22.875 30.9414 22.875 30.6367C22.875 30.3086 22.9805 30.0391 23.1914 29.8281C23.4258 29.6172 23.6953 29.5117 24 29.5117C24.3047 29.5117 24.5625 29.6172 24.7734 29.8281C25.0078 30.0391 25.125 30.3086 25.125 30.6367C25.125 30.9414 25.0078 31.2109 24.7734 31.4453C24.5625 31.6562 24.3047 31.7617 24 31.7617Z" fill="#56504C"/>
</svg>

<svg width="48" height="48" fill="none" xmlns="http://www.w3.org/2000/svg"><path d="M38.45 30.777L26.565 10C26.004 8.992 25.148 8.488 24 8.488s-2.004.504-2.566 1.512L9.55 30.777c-.797 1.383-.797 2.766 0 4.149.82 1.383 2.027 2.074 3.62 2.074h21.657c1.594 0 2.79-.691 3.586-2.074.82-1.383.832-2.766.035-4.149zM23.261 19h1.476v9h-1.476v-9zM24 31.762c-.305 0-.574-.106-.809-.317a1.173 1.173 0 01-.316-.808c0-.328.105-.598.316-.809.235-.21.504-.316.809-.316.305 0 .563.105.773.316.235.211.352.48.352.809 0 .304-.117.574-.352.808a1.05 1.05 0 01-.773.317z" fill="#56504C"/></svg>
